img/icones/entrega.svg

<svg width="16" height="16" viewBox="0 0 16 16" fill="none" xmlns="http://www.w3.org/2000/svg">
<path d="M12.667 4.66698C12.667 3.93398 12.067 3.33398 11.334 3.33398H10.001C9.63401 3.33398 9.33401 3.63398 9.33401 3.99998C9.33401 4.36698 9.63401 4.66698 10.001 4.66698H11.334V6.43398L9.01401 9.33398H6.66701V6.66698C6.66701 6.29998 6.36701 5.99998 6.00101 5.99998H4.00001C3.64974 5.99985 3.30287 6.06875 2.97924 6.20273C2.6556 6.33671 2.36154 6.53316 2.11386 6.78084C1.86618 7.02852 1.66974 7.32258 1.53575 7.64621C1.40177 7.96985 1.33288 8.31671 1.33301 8.66698V9.99998C1.33301 10.367 1.63301 10.667 2.00001 10.667H2.66601C2.66601 11.774 3.56001 12.667 4.66601 12.667C5.77301 12.667 6.66601 11.774 6.66601 10.667H9.01301C9.42001 10.667 9.80001 10.48 10.053 10.167L12.373 7.26698C12.566 7.02698 12.666 6.73298 12.666 6.43398L12.667 4.66698ZM4.66701 11.334C4.49053 11.3329 4.32159 11.2623 4.19688 11.1374C4.07218 11.0125 4.0018 10.8435 4.00101 10.667H5.33401C5.33401 11.034 5.03401 11.334 4.66701 11.334Z" fill="#9C9C9C"/>
<path d="M4.00001 4H6.00001C6.36701 4 6.66701 4.3 6.66701 4.667C6.66701 5.033 6.36701 5.333 6.00101 5.333H4.00001C3.82344 5.33247 3.65425 5.26217 3.5293 5.13741C3.40436 5.01266 3.3338 4.84356 3.33301 4.667C3.33301 4.3 3.63301 4 4.00001 4ZM12.668 8.666C11.561 8.666 10.668 9.56 10.668 10.666C10.668 11.773 11.561 12.666 12.668 12.666C13.775 12.666 14.668 11.773 14.668 10.666C14.668 9.56 13.775 8.666 12.668 8.666ZM12.668 11.333C12.4914 11.3322 12.3222 11.2617 12.1972 11.1368C12.0723 11.0119 12.0018 10.8427 12.001 10.666C12.001 10.3 12.301 10 12.668 10C13.035 10 13.335 10.3 13.335 10.666C13.335 11.033 13.035 11.333 12.668 11.333Z" fill="#9C9C9C"/>
</svg>

<svg width="16" height="16" fill="none" xmlns="http://www.w3.org/2000/svg">
  <path d="M12.667 4.667c0-.733-.6-1.333-1.333-1.333h-1.333c-.367 0-.667.3-.667.666 0 .367.3.667.667.667h1.333v1.767l-2.32 2.9H6.667V6.667c0-.367-.3-.667-.666-.667H4a2.666 2.666 0 0 0-2.667 2.667V10c0 .367.3.667.667.667h.666c0 1.107.894 2 2 2 1.107 0 2-.893 2-2h2.347c.407 0 .787-.187 1.04-.5l2.32-2.9c.193-.24.293-.534.293-.833V4.667h.001Zm-8 6.667a.67.67 0 0 1-.666-.667h1.333c0 .367-.3.667-.667.667Z" fill="#9C9C9C"/>
  <path d="M4 4h2c.367 0 .667.3.667.667 0 .366-.3.666-.666.666H4a.669.669 0 0 1-.667-.666C3.333 4.3 3.633 4 4 4Zm8.668 4.666c-1.107 0-2 .894-2 2 0 1.107.893 2 2 2s2-.893 2-2c0-1.106-.893-2-2-2Zm0 2.667a.67.67 0 0 1-.667-.667c0-.366.3-.666.667-.666.367 0 .667.3.667.666 0 .367-.3.667-.667.667Z" fill="#9C9C9C"/>
</svg>
